X:306
T:Waltz. RH.306
R:Waltz
S:Rev.R.Harrison’s MS,c1815,Cumbria
N:The last section (D music) originally had a leading
N:semiquaver on c. PJH.
O:England
A:Temple Sowerby,Cumbria
Z:vmp.Simon Wilson. Review PJH, 2008.
M:3/8
L:1/16
Q:3/8=50
K:D
A2fed2|A2fed2|a2edce|d2f2a2|\
A2fed2|A2gfe2|A2edce|d6:|!
|:faagf2|gbbagf|eggfe2|faagf2|\
A2fed2|A2gfe2|A2edce|d6:|!
|:a2afgb|a3fdf|a3gec|dcdefg|\
a3fgb|a3fdf|a3gec|d6:|!
|:ceagec|dfbafd|ceagec|defdAd|\
ceagec|dfagfd|ceagec|d6:|

